!!!OTL: 235. Kozatshke
!!!Genre:	Kozatshke
!!!Mode:	Major
!!!Listening/dance:	dance
!!!One_Mode:	yes
**kern
*I"P1
*clefG2
*k[f#]
*G:
*M2/4
*>A
=1
(16qqdd/LL
16qqee/
16qqff#/JJ
16ggLL)
16dd
16b
16ddJJ
16ccLL
16ee
16dd
16ccJJ
=2
16bLL
16g
16b
16gJJ
16ccLL
16ee
16dd
16ccJJ
=3
16bLL
16g
16b
16gJJ
16ccLL
16g
16cc
16gJJ
=4
*^
16bLL	4ryy
16g	.
16b	.
16gJJ	.
8aL	4a
24ddL	.
24ee	.
24ff#JJ	.
*v	*v
=5
16ggLL
16dd
16b
16ddJJ
16ccLL
16ee
16dd
16ccJJ
=6
16bLL
16g
16b
16gJJ
16ccLL
16ee
16dd
16ccJJ
=7
16ddLL
16ee
16ff#
16ggJJ
16aaLL
16ff#
16dd
16ff#JJ
=8
8ggL
8bb
8ggJ
8r
=9:|!|:
*>B
16aaLL
16ff#
16dd
16ff#JJ
16aaLL
16ccc
16bb
16aaJJ
=10
16bbLL
16gg
16dd
16ggJJ
16bbLL
16ddd
16ccc
16bbJJ
=11
16aaLL
16ff#
16dd
16ff#JJ
16aaLL
16ccc
16bb
16aaJJ
=12
(16aaLL
16ff#)
16gg
16eeJJ
4dd
=13
16eeLL
16cc
16g
16ccJJ
16eeLL
16gg
16ff#
16eeJJ
=14
16ddLL
16b
16g
16bJJ
16ddLL
16gg
16ff#
16eeJJ
=15
16ddLL
16gg
16ff#
16eeJJ
16ddLL
16cc
16b
16aJJ
=16
8gL
8b
8gJ
8r
=:|!
*-
